X: 1
T: Molly MacAlpin
R: barndance
M: 4/4
L: 1/8
K: Amin
|: AB |"Am" c2 B>A A2 GA | c2 B>A "G"G2 cd | "C"e2 de dcBA | "F"A4 A2 de|
"Dm" f2 fg "C"e2 ef | "G"d^cde "F"a3 g | "Am"aged "G"dcAG | "Am"A6 :|
|: ef | "C"gede g3 a | "Em"gede g3 e | "Am"agab "G"ageg | "F"a6 ag |
"Dm"f2 fg "C"e2 ef | "G"d^cde "F"a3 g | "Am"aged "G"dcAG | "Am"A6 :|


Tune 2228	Setting 29883

